public/assets/co2-icon.svg

<svg width="50" height="50" viewBox="0 0 50 50" fill="none" xmlns="http://www.w3.org/2000/svg">
<path d="M32.95 34.2201V15.7801L16.97 6.56006L1 15.7801V34.2201L16.97 43.4401L32.95 34.2201Z" fill="#A7C553"/>
<path d="M32.98 43.4401L17.01 34.2201V15.7801L32.98 6.56006H33.03L49 15.7801V34.2201L33.03 43.4401H32.98Z" fill="#006D68"/>
<path d="M24.3 25.23C24.33 29.28 21.08 32.58 17.03 32.62C12.98 32.65 9.67999 29.4 9.63999 25.35C9.60999 21.3 16.88 14.42 16.88 14.42C16.88 14.42 24.26 21.19 24.3 25.23Z" fill="white"/>
<path d="M16.96 23.39L17.06 35.59" stroke="#006D68" stroke-width="1.02" stroke-linecap="round" stroke-linejoin="round"/>
</svg>

<svg xmlns="http://www.w3.org/2000/svg" width="50" height="50" fill="none" viewBox="0 0 50 50"><path fill="#a7c553" d="M32.95 34.22V15.78L16.97 6.56 1 15.78v18.44l15.97 9.22z"/><path fill="#006d68" d="m32.98 43.44-15.97-9.22V15.78l15.97-9.22h.05L49 15.78v18.44l-15.97 9.22z"/><path fill="#fff" d="M24.3 25.23a7.334 7.334 0 0 1-7.27 7.39 7.334 7.334 0 0 1-7.39-7.27c-.03-4.05 7.24-10.93 7.24-10.93s7.38 6.77 7.42 10.81"/><path stroke="#006d68" stroke-linecap="round" stroke-linejoin="round" stroke-width="1.02" d="m16.96 23.39.1 12.2"/></svg>
